X:1
T:Title
%%score { ( 1 4 ) | ( 2 3 ) }
L:1/8
M:4/4
K:Bb
V:1 treble nm="Grand Piano"
V:4 treble 
V:2 bass 
V:3 bass 
V:1
 z4 z2[Q:1/4=93] [B,D][CE] | [DF]3 [EG] [DF]2 [DB]2 | c2 Bc [Fd]2 [FB]2 | [EG][GB][FA]G z Bcd | %4
[M:3/4] c6[K:bass] |[M:1/4] DE |[M:4/4][K:treble] [B,DF]3 [B,EG] [B,DF]2 [FB]2 | c2 Bc d2 [FB]2 | %8
 [EG][GB][FA]G FB [CA]<c |[M:3/4] [DB]6 |[M:12/8] [Fd]3- [Fd]3/2c3/2- c/=Bc3/2- c/dc3/2- | %11
 c3/2d3/2- d/c[DB]3/2- [DB]/[Ec][DB]3/2- [DB]/[EG][DF]3/2- | %12
 [DF]3/2D3/2- D3/2G3/2- G/^FG3/2- G/AB3/2- | %13
[M:27/16] B/B[Gc]-<[Gc][G_d][^F=d]/-[Fd]/-[Fd]-<[Fd][Fd]/-[Fd]/-[Fd]-<[Fd][Ge]/-[Ge]/-[Ge]-<[Ge]- | %14
[M:6/4] [Ge]>F- F2- F<d- d/ed/- d>c- c<[DB]- | %15
 [DB]3- [DB]/[FB]/- [FB]<[Gc]- [Gc]/[Gd][Gc]/- [Gc]>[GB]- [GB]<G- | %16
 G3- G/G/- G<F- F/F[FB]/- [FB]>[Gc]- [Gc]<d- |[M:9/8] d3- d/Bd3/2- d3/2c3/2- | %18
 c3/2[DB]3/2- [DB]3/2 z/ z z3 |] %19
V:2
 z4 z2 [B,,F,]2 | [B,,B,]3 [B,,B,] [B,,B,]2 [B,,F,]2 | [F,A,E]2 DE [B,,B,]2 [D,B,]2 | %3
 z2 [E,B,]2 z4 |[M:3/4] F2- [F,F-][F,F-] [F,F]2 |[M:1/4] B, z |[M:4/4] B,,3 B,, B,,2 B,,2 | %7
 z2 [F,F]2 z4 | [E,B,]2 z E D-[F,D] z/ E3/2 |[M:3/4] [B,,F,]6 | %10
[M:12/8] [B,,B,]3- [B,,B,]3/2[F,A,F]3/2- [F,A,F]/[F,_A,F][F,=A,F]3/2- [F,A,F]/[F,B,F][F,A,F]3/2- | %11
 [F,A,F]3/2[F,B,F]3/2- [F,B,F]/[F,A,E][B,,B,]3/2- [B,,B,]/[B,,B,][B,,B,]3/2- [B,,B,]/[B,,B,][B,,B,]3/2- | %12
 [B,,B,]3/2D,3/2- D,3/2G,3/2- G,/^F,G,3/2- G,/A,B,3/2- | %13
[M:27/16] B,/B,[E,B,]-<[E,B,][E,A,][D,A,]/-[D,A,]/-[D,A,]-<[D,A,][D,A,]/-[D,A,]/-[D,A,]-<[D,A,][C,C]/-[C,C]/-[C,C]-<[C,C]- | %14
[M:6/4] [C,C]>[F,A,E]- [F,A,E]2- [F,A,E]<[K:treble][B,F]- [B,F]/[B,G][B,F]/- [B,F]>[K:bass][F,A,E]- [F,A,E]<[B,,F,]- | %15
 [B,,F,]3- [B,,F,]/[D,B,]/- [D,B,]<[E,B,]- [E,B,]/[E,B,][E,B,]/- [E,B,]>[E,B,]- [E,B,]<[E,B,E]- | %16
 [E,B,E]3- [E,B,E]/[E,B,E]/- [E,B,E]<[F,B,D]- [F,B,D]/[F,B,D][D,B,]/- [D,B,]>[E,B,]- [E,B,]<[F,B,F]- | %17
[M:9/8] [F,B,F]3- [F,B,F]/[G,B,D][F,B,F]3/2- [F,B,F]3/2[F,A,E]3/2- | %18
 [F,A,E]3/2[B,,B,]3/2- [B,,B,]3/2 z/ z z3 |] %19
V:3
 x8 | x8 | z2 F,2 z4 | [E,B,]2 z E [D,B,]2 [C,A,][B,,B,] |[M:3/4] [F,A,]2 z2 z2 | %5
[M:1/4] [B,,F,]-[B,,F,C] |[M:4/4] x8 | [F,A,F]2 G,A, [B,F]2 [D,B,]2 | z2 [E,B,]2 .[F,B,]2 F,2 | %9
[M:3/4] x6 |[M:12/8] x12 | x12 | x12 |[M:27/16] x27/2 |[M:6/4] x9/2[K:treble] x5[K:bass] x5/2 | %15
 x12 | x12 |[M:9/8] x9 | x9 |] %19
V:4
 x8 | x8 | x8 | z4 F2 F2 |[M:3/4] z2[K:bass] A,A, A,2 |[M:1/4] x2 |[M:4/4][K:treble] x8 | x8 | x8 | %9
[M:3/4] x6 |[M:12/8] x12 | x12 | x12 |[M:27/16] x27/2 |[M:6/4] x12 | x12 | x12 |[M:9/8] x9 | x9 |] %19

